X:55
T:Te Kieldrecht
O:vlaanderen
C:Trad.
Z:Bart Vanhaverbeke 
L:1/8
M:6/8
K:C
"C"c3 C2 C |"G7"DED "C"C2 G |G2 G "F"A2 F | "G7" E2 D "C" C2 C ||
w:||| *** Te
"C" C3 C2 E | G3 G2 G | G2 G c2 B | "F" A3 "C" G2 G |
